X:135
T: DORT OBEN AUF DEM BERGE
N: K2223
O: Europa, Mitteleuropa, Deutschland, Kassel
R: Kinder - Lied, Reigen, Tanz - Spiel, Brautwerbung
M: 2/4
L: 1/16
K: F
C2 | F2F2F2F2 | F4C2
C2 | A2A2A2A2 | A4z2
F2 | c2c2c2c2 | c2A2F2
F2 | G2G2C2C2 | F4z2
cc | c2B2A2cc | c2B2A2
AA | G2G2G2G2 | F4z2

